X: 1
T: Tanko Bushi
T: Coal Miner's Dance
O: Japan
M: 2/4
L: 1/8
K: G
"^instr:"\
[| D>B A>G | Az A>A | D>B A>G | Az A>A | D>d B>d A>B G>E | D>B A>G | Az ||
"^vocal"\
|: A>A \
| Dz B,>D | D4- | D2 E>G | G2 G2- | G2 A>G | ~E2 D>D | E3 z/[gG]/ | [eE]z [eE]z |
| z>G, A,>B, | D>E G2 | E2 D2- | D2 E>D | B,2 A,>G, | A,2 a/d>b | az G>A | B2 B2- |
| B2 d>e | d2 B>A | G2 A>B | G2 E>D | D2 g/e>d | dz E>G | G2 G2- | G2 A2 |
| E2 D2 | z>D E>G | ~G2 E>G | Az [bB]>[gG] | [aA]z [aA]z "instr"|| D>B A>G | Az A>A | D>B A>G | Az :|

%%sep 1 1 500

